X: 16045
T: Green Cottage, The
R: polka
M: 2/4
K: Edorian
|:GE ED|B,E ~E2|GF ED|GA B>A|
GE ED|B,E EG|B/c/B/A/ GF|E2 B>A:|
|:Be ef|eB BA|Be df|e2 ef|
ga/g/ fg/f/|ed BA|BE FG/A/|B2 B>A:|

